X:1
T:Title
%%score ( 1 2 ) { 3 | 4 }
L:1/8
Q:1/4=115
M:4/4
K:Eb
V:1 treble nm="Grand Piano, Unnamed-000"
V:2 treble 
V:3 bass nm="Choir Pad, Missionary Hymn, 76.76 D"
V:4 bass 
V:1
 [B,E]2 [EG]2 [EB]2 [EB]2 | [Ec]2 [EB]4 [EG]2 | [B,E]2 [B,D]2 [B,E]2 [DA]2 | [EG]2 [EG]4 [DF]2 | %4
w: By~Lowell~Mason,~1823 * * *||||
 [B,E]2 [EG]2 [EB]2 [EB]2 | [Ec]2 [EB]4 [EG]2 | [DF]2 [EG]2 [Gc]2 [FB]2 | [E=A]2 [DB]6 | %8
w: ||||
 [EB]2 [Ge]2 [EB]2 [DA]2 | [EG]2 [Ec]4 [EB]2 | [Ad]2 [Ge]2 [EB]2 BA | [EG]2 [EG]4 [DF]2 | %12
w: ||||
 [B,E]2 [EG]2 [EB]2 [EB]2 | [Ec]2 [EB]4 [EG]2 | [B,E]2 [CF]2 [FA]2 [EG]2 | [DF]2 E6- | E2 z2 z4 |] %17
w: |||||
V:2
 x8 | x8 | x8 | x8 | x8 | x8 | x8 | x8 | x8 | x8 | z4 z2 E2 | x8 | x8 | x8 | x8 | x8 | x8 |] %17
V:3
 G,2 B,2 G,2 G,2 | A,2 G,4 B,2 | B,2 B,2 B,2 B,2 | B,2 B,6 | G,2 B,2 G,2 G,2 | A,2 G,4 B,2 | %6
 B,2 B,2[K:treble] E2 D2 | C2 B,6 | G,2[K:bass] B,2 G,2 B,2 | B,2 A,4 B,2 | B,2 B,2 G,2 B,2 | %11
 B,2 B,6 | G,2 B,2 G,2 G,2 | A,2 G,4 B,2 | B,2 A,2 C2 B,2 | A,2 G,6- | G,2 z2 z4 |] %17
V:4
 E,2 E,2 E,2 E,2 | E,2 E,4 E,2 | G,2 A,2 G,2 F,2 | E,2 B,,6 | E,2 E,2 E,2 E,2 | E,2 E,4 E,2 | %6
 D,2 E,2 C,2 F,2 | F,,2 B,,6 | E,2 E,2 z2 F,2 | E,2 z2 z2 G,2 | F,2 E,2 E,2 D,2 | E,2 B,,6 | %12
 E,2 E,2 E,2 E,2 | E,2 E,4 E,2 | G,2 z2 F,2 z2 | B,,2 E,6- | E,2 z2 z4 |] %17

